X: 222
T: Bari Felek Ben Yüzüne Söyleyim
C: Nikoğos Ağa
O: Turkey
F: http://compmusic.upf.edu/node/140
N: acemkurdi--sarki--yuruksemai--bari_felek--nikogos_aga
N: makam= acemkurdi
N: form= sarki
N: usul= yuruksemai = 6/8
M: 6/8
L: 1/16
K: C _B   
Q: 1/4=120
%%MIDI tuningsystem comma53
f8 f4f4 f4z4  | f8 a4g4 f6e2  | e8 d4e4 d4c4  | \
w:  Ba ri  fe lek   |  ben  yü zü ne   |  söy le yim   | 
e4d4 e4d4 c6_3/4B2  | 
w:  a man  *  a man    | 
A4_3/4B8c8d4  | d8 e4e4 d4z4  | c4_2/4B4 c4d8a4  | \
w:  Bu  güf ta rı   |  ni ce ye  dek   |  söy *  le yim   | 
a4g4 f4e2d2 c4d4  | 
w:  yâr    | 
d2c2c6_3/4B2B6A2A4  | A8 _3/4B4c4 d4z4  | \
w:  Bu  *  güf *  ta *  rı   |  ni ce ye  dek   | 
B6A2 G4c8B2A2  | A8 f4e2g2 f8  | 
w:  söy *  *  *  le  |  yim   SAZ  | 
f8 f4f4 f4z4  | f8 a4g4 f6e2  | e8 d4e4 d4c4  | \
w:  Ba ri  fe lek   |  ben  yü zü ne   |  söy le yim   | 
e4d4 e4d4 c6_3/4B2  | 
w:  a man  *  a man    | 
A4_3/4B8c8d4  | d8 e4e4 d4z4  | c4_2/4B4 c4d8a4  | \
w:  Bu  güf ta rı   |  ni ce ye  dek   |  söy *  le yim   | 
a4g4 f4e2d2 c4d4  | 
w:  yâr    | 
d2c2c6_3/4B2B6A2A4  | A8 _3/4B4c4 d4z4  | \
w:  Bu  *  güf *  ta *  rı   |  ni ce ye  dek   | 
B6A2 G4c8B2A2  | A8 g4^f2g2 a8  | 
w:  söy *  *  *  le  |  yim   SAZ  | 
g4a8a4 a8  | g8 a4a4 a8  | a8 a4{c'}b4 a4g4  | \
w:  A man  fe lek   |  soh be ti ni   |  ney le *  yim   | 
g4a8g4 c'4b2a2  | a24  | a2g2^1/4f2e2 d4^3/4f2g2 a8  | 
w:  a man  a man   |  ey    |  SAZ  | 
g4a6g2c'2_7/8b2 a8  | a4d'2c'2 c'2b2b2a2 a8  | \
w:  A man  *  fe *  lek   |  SAZ  | 
g4a6g2f2e2 f8  | c4d2e2 f2g2a2g2 f4f4  | 
w:  ya man  *  fe *  lek   |  SAZ *  *  *  *  *  *  *  of    | 
f16-f4z4  | f8 f4f4 f8  | f4a6g2g2f2 f4e4  | \
w:   |  Gay rı  fe lek   |  na sıl  *  di *  lek   | 
e8 d4e6d2c4  | _e12d4 {e}d2e2d2c2  | 
w:  et me yim   |  yâr  yâr    | 
d2c2c6_3/4B2B2A2 A8  | A4_2/4B8c8d4  | \
w:  A *  man  *  fe *  lek   |  de nen  el de   | 
B6A2 G4c8B2A2  | A8 g4^f2g2 a8  | 
w:  git *  *  *  me  |  yim   SAZ  | 
g4a8a4 a8  | g8 a4a4 a8  | a8 a4{c'}b4 a4g4  | \
w:  A man  fe lek   |  soh be ti ni   |  ney le *  yim   | 
g4a8g4 c'4b2a2  | a24  | a2g2^1/4f2e2 d4^3/4f2g2 a8  | 
w:  a man  a man   |  ey    |  SAZ  | 
g4a6g2c'2_7/8b2 a8  | a4d'2c'2 c'2b2b2a2 a8  | \
w:  A man  *  fe *  lek   |  SAZ  | 
g4a6g2f2e2 f8  | c4d2e2 f2g2a2g2 f4f4  | 
w:  ya man  *  fe *  lek   |  SAZ *  *  *  *  *  *  *  of    | 
f16-f4z4  | f8 f4f4 f8  | f4a6g2g2f2 f4e4  | \
w:   |  Gay rı  fe lek   |  na sıl  *  di *  lek   | 
e8 d4e6d2c4  | _e12d4 {e}d2e2d2c2  | 
w:  et me yim   |  yâr  yâr    | 
d2c2c6_3/4B2B2A2 A8  | A4_2/4B8c8d4  | \
w:  A *  man  *  fe *  lek   |  de nen  el de   | 
B6A2 G4c8B2A2  | A16 z8  | |


